**kern
*MM76
*k[f#]
*M4/4
=1
1r
=2
1r
=3
1r
=4
1r
=5
1r
=6
2r
8r
8b
4b
=7
8r
8b
4b
8r
8b
8e
8f#
=8
8g
8b
8e
8f#
4g
8cc
8b
=9
8a
8g
8f#
8e
4d#
16r
16d#
16e
16f#
=10
4g
8r
8cc
4b
8r
8a
=11
4g
8r
8a#
[2b
=12
16b]
16a#
16b
16cc#
8.a#
16b
8b
16ff#
16cc#
8d
8a#
=13
8b
16ff#
16cc#
8d
8a#
4b
8r
8ee
=14
8ff#
8cc#
8dd
8ee
8ff#
16gg
16cc#
8.cc#
16dd
=15
16b
16cc
16b
16a
16g
16a
16f#
16g
16a
16b
16a
16g
16f#
16g
16e
16f#
=16
8g
16dd
16a
8b
16ee
16b
8cc#
16ff#
16cc#
8dd#
16gg
16dd#
=17
8ee
16aa
16ee
8ff#
16bb
16ff#
8gg
8dd#
8ee
16ee
16b
=18
8cc
8b
8a
8cc
8b
16ff#
16a
16g
16b
16ee
16a#
=19
4b 4dd#
8r 8r
8b 8dd#
4b 4ee
8r 8r
8a 8ff#
=20
4g 4b
8r 8r
8a 8b
4g 4b
8r 8r
8a 8b
=21
4g 4b
8r 8r
8g 8cc
8a
16g
16a
8.f#
16f#
=22
8g
16f#
16g
8.e
16e
8f#
16e
16f#
8.d#
16d#
=23
8e
16b
16e
4cc
[2b
=24
8b]
8ee
4ee
8r
8ee
4ee
=25
8r
8ee
4ee
8r
8f#
8b
8cc#
=26
8dd
8ff#
8b
8cc#
8dd
8ff#
8b
8cc#
=27
8.dd
16ee
8.cc#
16b
4b
8r
8ff#
=28
4gg
8r
16bb
16ff#
4gg
8r
16ff#
16b
=29
4ee
8r
16bb
16b
8.ee
16dd
[4cc
=30
4cc]
[4b
4b]
[4a
=31
4a]
4g
8.f#
16g
8a
16g
16f#
=32
8g
16a
16g
4f#
[4e
16e]
16g
16f#
16e
=33
16b
8d#
[16e
16e]
8f#
16g
4f#
8r
8b 8dd#
*^
=34	=34
4b	4ee
8r	8r
8a#	8cc#
8b	8.dd#
8a	.
.	16dd
8g	8ee
8a	8dd#
=35	=35
8b	8ee
8d#	8f#
8e	8g
8d#	8a
4e	8b
.	8cc
8.d#	8.f#
16e	16e
=36	=36
1B	1e
==	==
*-	*-
